style-guide/assets/wds-icons-dashboard-small.svg

<svg xmlns="http://www.w3.org/2000/svg" viewBox="0 0 18 18">
  <path fill-rule="evenodd" d="M9 16c-2.785 0-5.188-1.64-6.315-4h12.63c-1.127 2.36-3.53 4-6.315 4M9 2c3.86 0 7 3.14 7 7 0 .34-.033.672-.08 1H10.5L7.8 6.4a1 1 0 1 0-1.6 1.2L8 10H2.08A7.026 7.026 0 0 1 2 9c0-3.86 3.14-7 7-7m0-2C4.038 0 0 4.038 0 9c0 4.963 4.038 9 9 9s9-4.037 9-9c0-4.962-4.038-9-9-9"/>
</svg>

<svg xmlns="http://www.w3.org/2000/svg" width="18" height="18" viewBox="0 0 18 18">
  <path fill-rule="evenodd" d="M9,16 C6.215,16 3.812,14.36 2.685,12 L15.315,12 C14.188,14.36 11.785,16 9,16 M9,2 C12.86,2 16,5.14 16,9 C16,9.34 15.967,9.672 15.92,10 L10.5,10 L7.8,6.4 C7.469,5.959 6.843,5.868 6.4,6.2 C5.958,6.531 5.869,7.158 6.2,7.6 L8,10 L2.08,10 C2.033,9.672 2,9.34 2,9 C2,5.14 5.14,2 9,2 M9,0 C4.038,0 0,4.038 0,9 C0,13.963 4.038,18 9,18 C13.962,18 18,13.963 18,9 C18,4.038 13.962,0 9,0"/>
</svg>
